X: 18
T: Grandfather's Clock
I: Grandfather's Clock	S-G	G	square
C: S-G
C: Henry Clay Work
M: C
Z: Transcribed to abc by Mary Lou Knack
R: square
K: G
"(D7)"D2| "G"G2FG "D7"A2GA| "G"B2cB "C"E2AA| "G"G2GG "D7"F2EF| "G"G4- Gz DD|
          "G"G2FG "D7"A2GA| "G"B2cB "C"E2AA| "G"G2GG "D7"FEF2| "G"G4- Gz GB|
          "G"d2B>A "(Em)"G2FG| "D7 (A7)"AGFE "G (D7)"D2GB| "(G)"d2B>A "A7"G2FG| "D7"A6 DD|
          "G"Gzz2 "D"Azz2| "G"B/B/B c>B "C"E2AA| "G/D"G4 "D7"F4| "G"G6 DD|
% %vskip .3cm
% %center  Play following line twice last time through
          "G"G2DD EDD2 | B,z Dz B,z DD| \
          G2DD EDD2| B,z Dz B,z DD|
% %vskip .3cm
          "G"Gzz2 "D"Azz2| "G"B/B/B c>B "C"E2AA| "G/D"G4 "D7"F4| "G"G6|]
% %text 9/1/98.   arr. T. Saletan

#include "LeftHeader.h"
% %text intentional blank so that each new letter is on the front of a page
% ---------- H ----------
#include "RightHeader.h"
% %scale .9
